assets/svg/icon-large-sla-support-blue.svg

<?xml version="1.0" encoding="UTF-8" standalone="no"?>
<svg width="56px" height="64px" viewBox="0 0 56 64" version="1.1" xmlns="http://www.w3.org/2000/svg" xmlns:xlink="http://www.w3.org/1999/xlink">
    <!-- Generator: Sketch 3.8.3 (29802) - http://www.bohemiancoding.com/sketch -->
    <title>blue/icon-large-sla-support-blue</title>
    <desc>Created with Sketch.</desc>
    <defs></defs>
    <g id="blue,-base" stroke="none" stroke-width="1" fill="none" fill-rule="evenodd">
        <g id="icons,-large-detailed-(blue)" transform="translate(-458.000000, -744.000000)" fill="#1055FF">
            <g id="blue/icon-large-sla-support-blue" transform="translate(458.000000, 744.000000)">
                <g id="Shape">
                    <g id="Page-1">
                        <g id="Stratum-2016_02_16-kg-v1.2">
                            <g id="focus">
                                <g id="support">
                                    <path d="M51.6567211,41.2598934 C50.9322695,40.5354418 50.131915,39.9164109 49.2843318,39.3859335 C47.9661504,38.664012 47.1329045,37.3669147 46.3342366,36.1010218 C45.3255705,34.5019995 44.2789529,32.8498449 42.2818617,32.8397244 C42.2784882,32.8397244 42.2759581,32.8380377 42.2725846,32.8380377 L42.2683678,32.8380377 L42.2641509,32.8380377 C42.2607774,32.8380377 42.2582474,32.8397244 42.254874,32.8397244 C40.2569392,32.8498449 39.2120083,34.5019995 38.2024989,36.1010218 C37.4696136,37.2623372 36.7055238,38.4464234 35.5661359,39.1928027 C34.5971082,39.7612315 33.687116,40.4443582 32.8715807,41.2598934 C30.362566,43.7689081 28.9811321,47.1035783 28.9811321,50.6524636 C28.9811321,54.2005056 30.362566,57.5360192 32.8715807,60.0450339 C35.3805954,62.5540485 38.716109,63.9354824 42.2641509,63.9354824 C45.8121928,63.9354824 49.1477064,62.5532051 51.6567211,60.0450339 C54.1665792,57.5360192 55.5471698,54.1996621 55.5471698,50.6524636 C55.5471698,47.1035783 54.1648925,43.7680647 51.6567211,41.2598934 L51.6567211,41.2598934 L51.6567211,41.2598934 Z M42.2641509,56.2574759 C40.7671758,56.2574759 39.3587542,55.6747097 38.3003294,54.6162851 C36.1151674,52.4302797 36.1151674,48.8729607 38.3003294,46.6877987 C39.3595975,45.6293741 40.7671758,45.0457646 42.2649943,45.0457646 C43.7619695,45.0457646 45.1703912,45.6285307 46.2296592,46.6877987 C48.4148212,48.8738041 48.4148212,52.4311231 46.2296592,54.6162851 C45.1695477,55.6747097 43.7628129,56.2574759 42.2641509,56.2574759 L42.2641509,56.2574759 L42.2641509,56.2574759 Z M42.2649943,38.6336508 C44.449313,38.6336508 46.5383313,39.2256939 48.3692794,40.3102629 L45.3348475,44.5076969 C44.3928075,44.0354118 43.3495633,43.7807152 42.2649943,43.7807152 C41.1846421,43.7807152 40.1447715,44.0345685 39.2052614,44.50348 L36.1699862,40.3052027 C37.9984043,39.2231638 40.0840491,38.6336508 42.2649943,38.6336508 L42.2649943,38.6336508 L42.2649943,38.6336508 Z M48.4114478,47.5935742 L52.6105685,44.5574556 C53.691764,46.3858736 54.281277,48.4715184 54.281277,50.6524636 C54.281277,52.8367822 53.6900772,54.9249572 52.6055082,56.7559053 L48.4063876,53.7206301 C49.365295,51.7969117 49.3669817,49.5181359 48.4114478,47.5935742 L48.4114478,47.5935742 L48.4114478,47.5935742 Z M51.9105744,43.5032477 L47.7426583,46.515752 C47.5529008,46.2652723 47.3521797,46.0215394 47.1244708,45.7929872 C46.9001354,45.5686517 46.6589326,45.3687739 46.4101395,45.1790165 L49.4226439,41.0127871 C49.8898688,41.3619406 50.3427565,41.7338652 50.762753,42.1538617 C51.184436,42.5763881 51.5597341,43.0326493 51.9105744,43.5032477 L51.9105744,43.5032477 L51.9105744,43.5032477 Z M39.2727308,36.7765582 C40.3176616,35.1210303 41.0227158,34.1056173 42.2683678,34.1039306 C43.5157064,34.1064606 44.2190739,35.1218736 45.2640048,36.7765582 C45.4976173,37.1476394 45.7480971,37.5296843 46.0120706,37.9083557 C44.8094303,37.556672 43.5519713,37.3694447 42.2649943,37.3694447 C40.9813909,37.3694447 39.7281485,37.5558286 38.5288818,37.9058257 C38.7903253,37.5263109 39.0391182,37.1459527 39.2727308,36.7765582 L39.2727308,36.7765582 L39.2727308,36.7765582 Z M33.7663924,42.154705 C34.1889188,41.7321785 34.64518,41.3577239 35.1157784,41.0068835 L38.1282827,45.1739562 C37.8769595,45.364557 37.6332267,45.5661215 37.4063612,45.7929872 C37.1803391,46.0190093 36.9813046,46.2593687 36.7932339,46.5073183 L32.6261611,43.4939706 C32.9744714,43.0267457 33.3463959,42.5738581 33.7663924,42.154705 L33.7663924,42.154705 L33.7663924,42.154705 Z M31.9227937,44.5473351 L36.1219143,47.5834537 C35.1630069,49.5071722 35.1621636,51.7859479 36.1176976,53.7113531 L31.9168901,56.7474717 C30.8356945,54.9190536 30.2461814,52.8334088 30.2461814,50.6524636 C30.2461814,48.4673016 30.8382247,46.3782834 31.9227937,44.5473351 L31.9227937,44.5473351 L31.9227937,44.5473351 Z M32.6185709,57.8008362 L36.7864869,54.7874885 C36.9762444,55.0379683 37.1778089,55.2825444 37.4055178,55.5102534 C37.6298532,55.7345887 37.8702126,55.9344667 38.1190057,56.1233806 L35.1065013,60.2904534 C34.6384331,59.9421432 34.1855454,59.5702186 33.7663924,59.1493789 C33.3438658,58.7276957 32.9685678,58.2714345 32.6185709,57.8008362 L32.6185709,57.8008362 L32.6185709,57.8008362 Z M36.1598658,60.9938209 L39.1942977,56.7955435 C40.1363379,57.2678286 41.1795819,57.5225253 42.2641509,57.5225253 C43.3453465,57.5225253 44.3852171,57.268672 45.3255705,56.8006038 L48.3600024,60.9997244 C46.5307409,62.08092 44.4450961,62.6704331 42.2641509,62.6704331 C40.0798323,62.6704331 37.9908141,62.0792333 36.1598658,60.9938209 L36.1598658,60.9938209 L36.1598658,60.9938209 Z M50.7619095,59.1502222 C50.3393831,59.5727487 49.8831219,59.9472034 49.4125235,60.2972003 L46.4008626,56.1301276 C46.6521857,55.9395268 46.896762,55.7371189 47.1227841,55.5110968 C47.3488063,55.2850746 47.5478407,55.0438718 47.7359114,54.7967655 L51.9029841,57.8092699 C51.5555172,58.2773381 51.181906,58.7302259 50.7619095,59.1502222 L50.7619095,59.1502222 Z M0,0 L0,55.5471698 L20.5283019,55.5471698 L20.5283019,54.3396226 L1.20283774,54.3396226 L1.20283774,1.20754717 L48.3018868,1.20754717 L48.3018868,28.9621736 L49.509434,28.9742491 L49.509434,0.0049509434 L0,0 L0,0 Z M10.8679245,44.6792453 L24.1509434,44.6792453 L24.1509434,43.4716981 L10.8679245,43.4716981 L10.8679245,44.6792453 L10.8679245,44.6792453 Z M10.8679245,33.8165132 L31.3962264,33.8165132 L31.3962264,32.608966 L10.8679245,32.608966 L10.8679245,33.8165132 L10.8679245,33.8165132 Z M26.5660377,20.5283019 L26.5660377,21.7358491 L42.2641509,21.7358491 L42.2641509,20.5283019 L26.5660377,20.5283019 L26.5660377,20.5283019 Z M26.5660377,13.2830189 L42.2641509,13.2830189 L42.2641509,12.0754717 L26.5660377,12.0754717 L26.5660377,13.2830189 L26.5660377,13.2830189 Z M13.2301276,8.34596226 C10.5525139,8.34596226 8.37554972,10.5501892 8.37554972,13.2458428 C8.37554972,14.3832819 8.76627795,15.4304638 9.4155388,16.2639516 L7.15423396,22.1597366 L10.1293023,20.9452656 L11.5806117,23.7515365 L13.2267053,19.21982 L14.9510488,23.7424296 L16.3071704,20.9123762 L19.3207547,22.2379287 L16.964262,16.3705086 C17.6636981,15.5210111 18.0847054,14.4312529 18.0847054,13.2458428 C18.0847054,10.5501892 15.9077413,8.34596226 13.2301276,8.34596226 L13.2301276,8.34596226 L13.2301276,8.34596226 Z M13.2301276,9.50608171 C15.2742581,9.50608171 16.924586,11.1707371 16.924586,13.2458428 C16.924586,15.3208904 15.2742581,16.9845017 13.2301276,16.9845017 C11.1859971,16.9845017 9.53566917,15.3208904 9.53566917,13.2458428 C9.53566917,11.1707371 11.1859971,9.50608171 13.2301276,9.50608171 L13.2301276,9.50608171 Z M10.3173577,17.1533572 C10.9219539,17.6138085 11.6332812,17.9355096 12.4098652,18.0698515 L11.3936585,20.8659714 L10.6731083,19.4713338 L9.19691429,20.0740159 L10.3173577,17.1533572 L10.3173577,17.1533572 L10.3173577,17.1533572 Z M16.0556566,17.22018 L17.1840467,20.0309754 L15.7463687,19.3976662 L15.0722812,20.803615 L14.031132,18.0721138 C14.7776109,17.9460667 15.4652137,17.6492502 16.0556566,17.22018 L16.0556566,17.22018 L16.0556566,17.22018 Z" id="Shape"></path>
                                </g>
                            </g>
                        </g>
                    </g>
                </g>
            </g>
        </g>
    </g>
</svg>

<svg width="56" height="64" viewBox="0 0 56 64" xmlns="http://www.w3.org/2000/svg"><title>blue/icon-large-sla-support-blue</title><path d="M51.657 41.26a13.373 13.373 0 0 0-2.373-1.874c-1.318-.722-2.151-2.02-2.95-3.285-1.008-1.599-2.055-3.251-4.052-3.261l-.01-.002h-.008l-.01.002c-1.997.01-3.042 1.662-4.052 3.261-.732 1.161-1.496 2.345-2.636 3.092a13.334 13.334 0 0 0-2.694 2.067 13.194 13.194 0 0 0-3.89 9.392c0 3.549 1.38 6.884 3.89 9.393a13.196 13.196 0 0 0 9.392 3.89 13.2 13.2 0 0 0 9.393-3.89 13.194 13.194 0 0 0 3.89-9.393c0-3.548-1.382-6.884-3.89-9.392zm-9.393 14.997a5.57 5.57 0 0 1-3.964-1.64 5.614 5.614 0 0 1 0-7.93 5.573 5.573 0 0 1 3.965-1.641 5.57 5.57 0 0 1 3.965 1.642 5.614 5.614 0 0 1 0 7.928 5.574 5.574 0 0 1-3.966 1.641zm.001-17.623c2.184 0 4.273.592 6.104 1.676l-3.034 4.198a6.833 6.833 0 0 0-6.13-.004l-3.035-4.199a11.925 11.925 0 0 1 6.095-1.671zm6.146 8.96l4.2-3.037a11.933 11.933 0 0 1 1.67 6.095c0 2.185-.59 4.273-1.675 6.104l-4.2-3.035a6.895 6.895 0 0 0 .005-6.127zm3.5-4.09l-4.168 3.012c-.19-.25-.39-.494-.619-.723a7.022 7.022 0 0 0-.714-.614l3.013-4.166c.467.349.92.72 1.34 1.14.421.423.797.88 1.148 1.35zm-12.638-6.727c1.045-1.656 1.75-2.671 2.995-2.673 1.248.002 1.951 1.018 2.996 2.673.234.37.484.753.748 1.131a13.315 13.315 0 0 0-7.483-.003c.261-.379.51-.759.744-1.128zm-5.507 5.378c.423-.423.88-.797 1.35-1.148l3.012 4.167c-.251.19-.495.392-.722.619a6.865 6.865 0 0 0-.613.714l-4.167-3.013c.348-.467.72-.92 1.14-1.34zm-1.843 2.392l4.199 3.036a6.897 6.897 0 0 0-.004 6.128l-4.201 3.036a11.933 11.933 0 0 1-1.67-6.095c0-2.185.591-4.274 1.676-6.105zm.696 13.254l4.167-3.014c.19.251.392.496.62.723a6.9 6.9 0 0 0 .713.613l-3.012 4.167c-.469-.348-.921-.72-1.34-1.14a12.04 12.04 0 0 1-1.148-1.35zm3.54 3.193l3.035-4.198a6.85 6.85 0 0 0 6.131.005L48.36 61a11.938 11.938 0 0 1-6.096 1.67c-2.184 0-4.273-.59-6.104-1.676zm14.603-1.844c-.423.423-.879.797-1.35 1.147l-3.011-4.167a6.96 6.96 0 0 0 .722-.619c.226-.226.425-.467.613-.714l4.167 3.012c-.347.468-.721.921-1.141 1.341zM0 0v55.547h20.528V54.34H1.203V1.208h47.099v27.754l1.207.012V.005L0 0zm10.868 44.68H24.15v-1.208H10.868v1.207zm0-10.863h20.528v-1.208H10.868v1.208zm15.698-13.289v1.208h15.698v-1.208H26.566zm0-7.245h15.698v-1.208H26.566v1.208zM13.23 8.346c-2.677 0-4.854 2.204-4.854 4.9 0 1.137.39 2.184 1.04 3.018L7.154 22.16l2.975-1.215 1.452 2.807 1.646-4.532 1.724 4.522 1.356-2.83 3.014 1.326-2.357-5.867c.7-.85 1.12-1.94 1.12-3.125 0-2.696-2.176-4.9-4.854-4.9zm0 1.16c2.044 0 3.695 1.665 3.695 3.74s-1.65 3.739-3.695 3.739c-2.044 0-3.694-1.664-3.694-3.74 0-2.074 1.65-3.739 3.694-3.739zm-2.913 7.647a4.8 4.8 0 0 0 2.093.917l-1.016 2.796-.72-1.395-1.477.603 1.12-2.92zm5.739.067l1.128 2.811-1.438-.633-.674 1.406-1.04-2.732a4.796 4.796 0 0 0 2.024-.852z" fill="#1055FF" fill-rule="evenodd"/></svg>
